!!!OTL: Sch&auml;fer und Edelmann (7a), S. 42
!!!id: T0109
**kern
*clefG2
*k[]
*C:
{8g
=1
8cc
8cc
8cc
8cc
=2
8dd
8cc
8b
8a
=3
8a
8g
8g
8g
=4
4g}
=5
{8cc
8g
=6
8g
8g
8g
8g
=7
8a
8g
8f
8e
=8
8g
8g
8g
8a
=9
4g}
=10
{8g
16g
16g
=11
8g
8f
8e
16g
16g
=12
4dd
8f
16f
16f
=13
8f
8e
8d
16g
16g
=14
4cc}
=15
{4g
=16
8cc
8cc
8cc
8cc
=17
8dd
8cc
8b
8a
=18
8cc
8b
8a
8g
=19
4.ee}
=20
{8dd
=21
8cc
8cc
8cc
8cc
=22
4dd
8ff
8dd
=23
8cc
8b
8a
8b
=24
4cc}
8r
==
*-
!!!minrhy: 16
!!!meters: 2/4 ]  ZZ[5
!!!cut: Sch&auml;fer und Edelmann (7a), S. 42
!!!reg: Luxemburg
!!!trd: Singendes Volk, Esch-Alzette 1937 posth.
!!!rhy1: X_  X_X_X_X_  X_X_X_X_  X_X_X_X_  X__   (x2)
!!!rhy2: X_X_  X_X_X_X_  X_X_X_X_  X_X_X_X_  X__
!!!key: T0109  16  C 2/4 ]  ZZ[5
!!!mod: HEPTATONIK IONISCH]  AMBITUS[10b
!!!kad: 55+1+3+1
!!!akz: +1+265_5655_5+24+1_+1+2+1+3_+1+2+1+1_
!!!fot: 'a__b__c__d__e__
!!!for: 'a__av_b__av_c__
!!!fok: '^__Vd_Wa_~a_~d_
!! PHRAS[AUFTAKTIG]
!!!fkt: "erz&auml;hlendes Lied"
!!!bem1: LULLINGEN; gesungen von hhh Franz und Johann Kayls
!!!bem2: gegen 1890; mitgeteilt von Herrn Godefroid, Lehrer,
!!!bem3: Rodingen 14.6.1933
!! THILL, Mathias:
!! PR[59] 2K[0] 2G[19] 3K[0] 3G[0] 4A[6] 4Ü[0] 5A[0] 6K[0] 6G[0]
!! 7K[0] 7G[0] 8A[0] MEHR[0] SI[24] ABS[54] SR[19] SP[6]
!! ST[10] 2k[0] 2g[13] 3k[0] 3g[0] 4d[0] 4ü[0] 5d[4] 6k[0] 6g[0]
!! 7k[0] 7g[0] 8d[0] mehr[0] si[17] dm[+7] sr[13] sp[4]
!! 1F[25] 2F[53] 3F[22] 4F[0] LF[0] 2P[0] 3P[0] 4P[0] TRI[0] DF[3] AB[55]
!! TF[0] U3K[0] U3[0] U4[0] U4Ü[0] U5[7] U6K[0] U6[0] U7K[0] U7[0]
!! N1[22] N2K[0] N2[38] N3K[0] N3[33] N4[0] N4Ü[0] N5[0] N6K[0] N6[0]
!!!n7k: 0] N7[0] O1[0] O2K[0] O2[0] O3K[0] O3[0] HÖ[0
!!!RNB: symbol: &auml;      = a umlaut  (UTF-8: Å„)
